Obsidian/status/16s/guake-indicator.svg

<svg height="16" width="16" xmlns="http://www.w3.org/2000/svg"><path d="m2.75 1c-.9695 0-1.75.7805-1.75 1.75v10.5c0 .9695.7805 1.75 1.75 1.75h10.5c.9695 0 1.75-.7805 1.75-1.75v-10.5c0-.9695-.7805-1.75-1.75-1.75zm3.25 1h1v1h3v2h-3v1h1c.7501 0 1.4400469.3166875 1.8730469.8046875.4330001.4871.6269531 1.0983125.6269531 1.6953125s-.193953 1.2102648-.6269531 1.697266c-.433.488-1.1229469.802734-1.8730469.802734h-1v1h-1v-1h-3v-2h3v-1h-1c-.75 0-1.4397469-.3147344-1.8730469-.8027344-.4333-.487-.6269531-1.1002656-.6269531-1.6972656 0-.5972.1936531-1.2079125.6269531-1.6953125.4332-.4874 1.1229469-.8046875 1.8730469-.8046875h1zm-1 3c-.25 0-.3101531.0596656-.3769531.1347656-.0667.0751-.1230469.2125344-.1230469.3652344 0 .1528.0563469.2920875.1230469.3671875.0668.0748.1269531.1328125.3769531.1328125h1v-1zm2 3v1h1c.25 0 .3099531-.0578125.3769531-.1328125s.1230469-.2141875.1230469-.3671875-.0560469-.2902344-.1230469-.3652344-.1259531-.1347656-.3769531-.1347656zm2 4h4v1h-4z" fill="#d3dae3"/></svg>

<svg xmlns="http://www.w3.org/2000/svg" width="16" height="16" version="1.1">
 <defs>
  <style id="current-color-scheme" type="text/css">
   .ColorScheme-Text { color:#d3dae3; } .ColorScheme-Highlight { color:#5294e2; }
  </style>
 </defs>
 <path style="fill:currentColor" class="ColorScheme-Text" d="M 2.75 1 C 1.7805 1 1 1.7805 1 2.75 L 1 13.25 C 1 14.2195 1.7805 15 2.75 15 L 13.25 15 C 14.2195 15 15 14.2195 15 13.25 L 15 2.75 C 15 1.7805 14.2195 1 13.25 1 L 2.75 1 z M 6 2 L 7 2 L 7 3 L 10 3 L 10 5 L 7 5 L 7 6 L 8 6 C 8.7501 6 9.4400469 6.3166875 9.8730469 6.8046875 C 10.306047 7.2917875 10.5 7.903 10.5 8.5 C 10.5 9.097 10.306047 9.7102648 9.8730469 10.197266 C 9.4400469 10.685266 8.7501 11 8 11 L 7 11 L 7 12 L 6 12 L 6 11 L 3 11 L 3 9 L 6 9 L 6 8 L 5 8 C 4.25 8 3.5602531 7.6852656 3.1269531 7.1972656 C 2.6936531 6.7102656 2.5 6.097 2.5 5.5 C 2.5 4.9028 2.6936531 4.2920875 3.1269531 3.8046875 C 3.5601531 3.3172875 4.2499 3 5 3 L 6 3 L 6 2 z M 5 5 C 4.75 5 4.6898469 5.0596656 4.6230469 5.1347656 C 4.5563469 5.2098656 4.5 5.3473 4.5 5.5 C 4.5 5.6528 4.5563469 5.7920875 4.6230469 5.8671875 C 4.6898469 5.9419875 4.75 6 5 6 L 6 6 L 6 5 L 5 5 z M 7 8 L 7 9 L 8 9 C 8.25 9 8.3099531 8.9421875 8.3769531 8.8671875 C 8.4439531 8.7921875 8.5 8.653 8.5 8.5 C 8.5 8.347 8.4439531 8.2097656 8.3769531 8.1347656 C 8.3099531 8.0597656 8.251 8 8 8 L 7 8 z M 9 12 L 13 12 L 13 13 L 9 13 L 9 12 z"/>
</svg>
